src/assets/logo-scrumlr-on-dark-small.svg

<?xml version="1.0" encoding="UTF-8"?>
<svg clip-rule="evenodd" fill-rule="evenodd" stroke-linejoin="round" stroke-miterlimit="1.4142" version="1.1" viewBox="0 0 46 52" xml:space="preserve" xmlns="http://www.w3.org/2000/svg"><g transform="matrix(.6863 0 0 .6863 -1.6427 -5.3923)"><path d="m56.881 27.161c-0.433 0.612-0.908 1.337-1.421 2.166-0.296 0.479-0.603 0.989-0.923 1.532-0.503 0.854-1.014 1.75-1.594 2.787-0.267 0.477-1.089 1.959-1.226 2.204-0.97 1.785-2.207 2.233-3.784 0.844-1.332-1.1-2.044-2.435-2.044-4.163 0-2.014 1.288-5.164 3.648-8.499 1.196-1.858 2.037-3.283 2.577-4.433 0.576-1.226 0.692-1.951 0.546-2.032-1.119-0.636-5.92 2.104-10.474 6.189-5.28 4.735-8.86 9.866-9.027 13.595-0.106 2.219 2.274 4.199 6.809 6.263 0.845 0.385 5.578 2.327 6.357 2.762 1.642 0.942 2.582 2.336 2.582 3.926 0 1.831-1.029 3.981-3.138 6.678-2.199 2.727-6.205 4.764-10.796 5.368-6.399 0.848-13.939-1.775-19.743-7.427-1.247-1.299-0.831-2.61 0.73-3.349 0.65-0.243 1.529-0.44 2.514-0.571 2.447-0.325 4.703 0.052 6.389 1.141 4.829 3.168 8.772 4.829 12.306 4.361 1.703-0.225 3.09-0.791 3.811-1.577 0.844-0.927 0.741-1.89 0.028-2.36-0.716-0.44-1.554-0.888-2.623-1.414-0.735-0.361-3.439-1.634-3.882-1.848-6.943-3.348-10.102-6.18-10.102-10.801 0-8.844 9.587-19.552 19.348-24.805 2.385-1.289 4.056-1.837 6.143-2.113 1.965-0.26 3.639 0.075 5.099 1.036 2.113 1.603 3.667 3.901 4.295 6.139 0.677 2.587-0.3 5.157-2.394 8.385l-0.419-0.273 0.408 0.289z" fill="#fff"/></g><g transform="matrix(.30905 0 0 .60807 6.345 21.81)"><path d="m-1.116 47.523s51.213-18.216 112.21-20.676c1.44-0.057 2.655 0.815 2.655 1.903 0 1.008-4.274 5.129-5.607 5.185-11.103 0.472-59.25 3.044-103.03 13.588 0 0.162-6.225 0.973-6.225 0" fill="#f7f7f7"/></g></svg>

<svg viewBox="0 0 46 52" version="1.1" xmlns="http://www.w3.org/2000/svg" xmlns:xlink="http://www.w3.org/1999/xlink" xml:space="preserve" style="fill-rule:evenodd;clip-rule:evenodd;stroke-linejoin:round;stroke-miterlimit:1.41421;"><g id="Path" transform="matrix(0.686298,0,0,0.686298,-1.64272,-5.39234)"><path d="M56.881,27.161C56.448,27.773 55.973,28.498 55.46,29.327C55.164,29.806 54.857,30.316 54.537,30.859C54.034,31.713 53.523,32.609 52.943,33.646C52.676,34.123 51.854,35.605 51.717,35.85C50.747,37.635 49.51,38.083 47.933,36.694C46.601,35.594 45.889,34.259 45.889,32.531C45.889,30.517 47.177,27.367 49.537,24.032C50.733,22.174 51.574,20.749 52.114,19.599C52.69,18.373 52.806,17.648 52.66,17.567C51.541,16.931 46.74,19.671 42.186,23.756C36.906,28.491 33.326,33.622 33.159,37.351C33.053,39.57 35.433,41.55 39.968,43.614C40.813,43.999 45.546,45.941 46.325,46.376C47.967,47.318 48.907,48.712 48.907,50.302C48.907,52.133 47.878,54.283 45.769,56.98C43.57,59.707 39.564,61.744 34.973,62.348C28.574,63.196 21.034,60.573 15.23,54.921C13.983,53.622 14.399,52.311 15.96,51.572C16.61,51.329 17.489,51.132 18.474,51.001C20.921,50.676 23.177,51.053 24.863,52.142C29.692,55.31 33.635,56.971 37.169,56.503C38.872,56.278 40.259,55.712 40.98,54.926C41.824,53.999 41.721,53.036 41.008,52.566C40.292,52.126 39.454,51.678 38.385,51.152C37.65,50.791 34.946,49.518 34.503,49.304C27.56,45.956 24.401,43.124 24.401,38.503C24.401,29.659 33.988,18.951 43.749,13.698C46.134,12.409 47.805,11.861 49.892,11.585C51.857,11.325 53.531,11.66 54.991,12.621C57.104,14.224 58.658,16.522 59.286,18.76C59.963,21.347 58.986,23.917 56.892,27.145L56.473,26.872L56.881,27.161Z" style="fill:white;"></path></g><g id="Fill.-3" transform="matrix(0.309047,0,0,0.608073,6.34498,21.8102)"><path d="M-1.116,47.523C-1.116,47.523 50.097,29.307 111.093,26.847C112.533,26.79 113.748,27.662 113.748,28.75C113.748,29.758 109.474,33.879 108.141,33.935C97.038,34.407 48.891,36.979 5.109,47.523C5.109,47.685 -1.116,48.496 -1.116,47.523" style="fill:rgb(247,247,247);"></path></g></svg>
